X: 16
T: Weedwalker
O: The Great Bear Trio
R: march, reel
Z: 2018 John Chambers <jc:trillian.mit.edu>
S: https://www.youtube.com/watch?v=Z3J0DkfXVX0, by-ear at Roaring Jelly practice 2017-9-12.
M: C|
L: 1/8
K: D
|:\
"D"{e}f4 {e}f3f | e2d2 B2A2 | "G"{A}B3c d2dc | BAF2 "A7"A4 |\
"D"{e}f4 {e}f3f | e2d2 B2A2 | "G"{A}B3c d2dB | "A7"AFE2 "D"D4 :|
|:\
"G"{A}B4 {A}B3B | "D"A2F2 E2D2 | "G"{A}B4 {A}B3B | "D"A2F2 A4 |\
"G"{A}B2 {A}B4 AB | "D"A2F2 E2D2 "1."| "A7"{D}E4 {D}E4 "2."| "D"D4 z4 :|
%
"Variants:"\
y2 y8 \
"1."| E2EF GFE2 |\
y4 "2."| D2 {c}d4 c2 :|\
y8 y8 y8 y8 y8

